X:866
M:C|
L:1/8
K:G Minor
g|dgg^f g2d=f|cdfg dfcf|dgg^f g2dg|fdcA G2 GA|Ggg^f g2 d=f|
cdfg afcf|d^fga bag=f|dfcA G2G||
d|BGdG BGd=e|fdcf AFcA|BGdG BGdg|fdcA G2 Gd|

